X:1
T:Sweeter Than All
T:Sweeter Than All
T:J. Howard Entwisle
T:Johnson Oatman, 1900
T:Public Domain Courtesy of the Cyber Hymnal™
C:J. Howard Entwisle
Z:Public Domain
Z:Courtesy of the Cyber Hymnal™
%%score ( 1 2 ) ( 3 4 )
L:1/8
Q:1/4=110
M:6/8
K:Eb
V:1 treble 
V:2 treble 
V:3 bass 
V:4 bass 
V:1
 E2 [EG] [EB]2 [Ec] | [EB]2 [B,G] [B,E]3 | E[EF][EG] [DF]3 | [DF][EG][DA] [EG]3 | %4
w: 1.~Christ will me His|aid af- ford,|Nev- er to fall,|nev- er to fall,|
w: 2.~I will fol- low|all the way,|Hear- ing Him call,|hear- ing Him call,|
w: 3.~Tho’ a ves- sel|I may be,|Brok- en and small,|brok- en and small,|
w: 4.~When I reach the|crys- tal sea,|Voic- es will call,|voic- es will call,|
 [EG]2 [FA] [GB]2 [Ge] | [Ae]2 [Ac] [GB]3 | [Ac][EA][Ec] [EB]3 | [DB][DA][DF] [B,E]3 || %8
w: While I find my|pre- cious Lord,|Sweet- er than all,|sweet- er than all.|
w: Find- ing Him, from|day to day,|Sweet- er than all,|sweet- er than all.|
w: Yet His bless- ings|fall on me,|Sweet- er than all,|sweet- er than all.|
w: But my Sav- ior’s|voice will be|Sweet- er than all,|sweet- er than all.|
"^Refrain" [DF][EG][DA] [EG]2 [DF] | [EG][EA][Ec] [EB]3 | [Ec][Ed][Ee] [Ed]2 [Ec] | %11
w: |||
w: |||
w: |||
w: |||
 [EB]2 [EG] [DF]3 | [EG]2 [EG] [DA]2 [DA] | [EB]2 [EB] [Ec]3 | [Ed][Ed][Ec] B3 | %15
w: ||||
w: ||||
w: ||||
w: ||||
 [B,B][CA][DF] E3 |] %16
w: |
w: |
w: |
w: |
V:2
 E2 x4 | x6 | E x5 | x6 | x6 | x6 | x6 | x6 || x6 | x6 | x6 | x6 | x6 | x6 | x3 (EDC) | x3 E3 |] %16
V:3
 [E,G,]2 [E,B,] [E,G,]2 [E,A,] | [E,G,]2 [D,G,] [C,G,]3 | [=B,,=A,][B,,A,][B,,A,] [_B,,_A,]3 | %3
w: ~ ~ ~ ~|~ ~ ~|~ ~ ~ ~|
 [B,,A,][B,,G,][B,,F,] (G, B,2) | [E,B,]2 [E,B,] [E,E]2 [E,=B,] | [A,C]2 [A,E] [E,E]3 | %6
w: ~ ~ ~ ~ *|~ ~ ~ ~|~ ~ ~|
 [A,,E][A,,C][A,,A,] [B,,G,]3 | [B,,F,][B,,F,][B,,A,] [E,G,]3 || %8
w: ~ ~ ~ ~|~ ~ ~ ~|
 [A,B,][G,B,][F,B,] [E,B,]2 [B,,B,] | [E,B,][E,C][E,A,] [E,G,]3 | A,[A,B,][A,C] [A,B,]2 A, | %11
w: Je- sus is now, and|ev- er will be,|Sweet- er than all the|
 [E,G,]2 [E,B,] [B,,B,]3 | [E,B,]2 [E,B,] [F,B,]2 [F,B,] | [G,_D]2 [G,D] [A,C]3 | %14
w: world to me,|Since I heard His|lov- ing call,|
 [A,,C][A,,B,][A,,A,] [B,,G,]3 | [B,,G,][B,,F,][B,,A,] [E,G,]3 |] %16
w: Sweet- er than all,|sweet- er than all.|
V:4
 x6 | x6 | x6 | x3 E,3 | x6 | x6 | x6 | x6 || x6 | x6 | A, x3 A, x | x6 | x6 | x6 | x6 | x6 |] %16

